SVG/ico__eye.svg

<svg xmlns="http://www.w3.org/2000/svg" viewBox="0 0 240 240">
  <path class="cls-1" d="M120,60c-55.23,0-100,60-100,60,0,0,44.77,60,100,60s100-60,100-60c0,0-44.77-60-100-60ZM177.29,135.15c-13.82,11.34-34.98,24.85-57.28,24.85s-43.46-13.51-57.28-24.85c-6.44-5.28-11.95-10.62-16.27-15.15,4.32-4.53,9.83-9.87,16.27-15.15,13.82-11.34,34.98-24.85,57.28-24.85s43.46,13.51,57.28,24.85c6.44,5.28,11.95,10.62,16.27,15.15-4.32,4.53-9.83,9.87-16.27,15.15Z"/>
  <path class="cls-1" d="M119.93,90.07c-16.57,0-30,13.43-30,30s13.43,30,30,30,30-13.43,30-30-13.43-30-30-30ZM119.93,130.07c-5.52,0-10-4.48-10-10s4.48-10,10-10,10,4.48,10,10-4.48,10-10,10Z"/>
</svg>

<svg width="240" height="240" viewBox="0 0 240 240" fill="none" xmlns="http://www.w3.org/2000/svg">
<path d="M120 80C142.31 80 163.46 93.51 177.28 104.85C183.72 110.13 189.23 115.47 193.55 120C189.23 124.53 183.72 129.87 177.28 135.15C163.46 146.49 142.3 160 120 160C97.7 160 76.54 146.49 62.72 135.15C56.28 129.87 50.77 124.53 46.45 120C50.77 115.47 56.28 110.13 62.72 104.85C76.54 93.51 97.7 80 120 80ZM120 60C64.77 60 20 120 20 120C20 120 64.77 180 120 180C175.23 180 220 120 220 120C220 120 175.23 60 120 60Z" fill="black"/>
<path d="M119.93 90.0699C103.36 90.0699 89.93 103.5 89.93 120.07C89.93 136.64 103.36 150.07 119.93 150.07C136.5 150.07 149.93 136.64 149.93 120.07C149.93 103.5 136.5 90.0699 119.93 90.0699ZM119.93 130.07C114.41 130.07 109.93 125.59 109.93 120.07C109.93 114.55 114.41 110.07 119.93 110.07C125.45 110.07 129.93 114.55 129.93 120.07C129.93 125.59 125.45 130.07 119.93 130.07Z" fill="black"/>
</svg>
